T: A Trip To Mabou Ridge
M: 4/4
L: 1/8
K: Amix
ed|:c<e A>c e3g|f<a d>f e2 e>d|c<e A>c e3g|B<d G>B d2 e>2|
c<e A>c e3g|f<a d>f e2 e>d|c<e A>c B<d G>B|A4 A2:|
|:f^g|a>^g a>f e3=g|f>a d>f e2 f>^g|a>^g a>f e>f =ge|d>B G>B d2 f>^g|
a>^g a>f e3=g|f>a d>f e2 e>d|c<e A>c B<d G>B|A4 A2:|
